Sweet-Rainbow/icons/dockbarx.svg

<?xml version="1.0" encoding="UTF-8" standalone="no"?>
<!-- Generator: Gravit.io -->

<svg
   xmlns:dc="http://purl.org/dc/elements/1.1/"
   xmlns:cc="http://creativecommons.org/ns#"
   xmlns:rdf="http://www.w3.org/1999/02/22-rdf-syntax-ns#"
   xmlns:svg="http://www.w3.org/2000/svg"
   xmlns="http://www.w3.org/2000/svg"
   xmlns:sodipodi="http://sodipodi.sourceforge.net/DTD/sodipodi-0.dtd"
   xmlns:inkscape="http://www.inkscape.org/namespaces/inkscape"
   style="isolation:isolate"
   viewBox="0 0 36 36"
   width="48"
   height="48"
   version="1.1"
   id="svg9"
   sodipodi:docname="dockbarx.svg"
   inkscape:version="0.92.4 (5da689c313, 2019-01-14)">
  <metadata
     id="metadata15">
    <rdf:RDF>
      <cc:Work
         rdf:about="">
        <dc:format>image/svg+xml</dc:format>
        <dc:type
           rdf:resource="http://purl.org/dc/dcmitype/StillImage" />
        <dc:title></dc:title>
      </cc:Work>
    </rdf:RDF>
  </metadata>
  <defs
     id="defs13" />
  <sodipodi:namedview
     pagecolor="#ffffff"
     bordercolor="#666666"
     borderopacity="1"
     objecttolerance="10"
     gridtolerance="10"
     guidetolerance="10"
     inkscape:pageopacity="0"
     inkscape:pageshadow="2"
     inkscape:window-width="640"
     inkscape:window-height="480"
     id="namedview11"
     showgrid="false"
     inkscape:zoom="29.365243"
     inkscape:cx="25.325443"
     inkscape:cy="32"
     inkscape:current-layer="svg9"
     units="px" />
  <linearGradient
     id="_lgradient_0"
     x1="-3.8208334e-05"
     y1="0.50000006"
     x2="0.99996185"
     y2="0.50000006"
     gradientTransform="matrix(44,0,0,44,2,2)"
     gradientUnits="userSpaceOnUse">
    <stop
       offset="0%"
       stop-opacity="1"
       style="stop-color:rgb(211,0,220)"
       id="stop2" />
    <stop
       offset="100%"
       stop-opacity="1"
       style="stop-color:rgb(135,0,255)"
       id="stop4" />
  </linearGradient>
  <g
     id="g826"
     transform="matrix(0.81818182,0,0,0.81818182,-1.6363637,-1.6363637)">
    <path
       id="path7"
       d="m 10,35 v 0 C 8.896,35 8,34.104 8,33 v 0 c 0,-1.104 0.896,-2 2,-2 v 0 h 34 c 1.104,0 2,0.896 2,2 v 6 c 0,3.863 -3.137,7 -7,7 H 9 C 5.137,46 2,42.863 2,39 v -19 0 c 0,-1.104 0.896,-2 2,-2 v 0 c 1.104,0 2,0.896 2,2 v 0 17 c 0,2.76 2.24,5 5,5 h 26 c 2.76,0 5,-2.24 5,-5 V 35 Z M 6,11 v 0 c 0,1.104 -0.896,2 -2,2 v 0 C 2.896,13 2,12.104 2,11 V 11 9 C 2,5.137 5.137,2 9,2 h 30 c 3.863,0 7,3.137 7,7 v 16 0 c 0,1.104 -0.896,2 -2,2 v 0 c -1.104,0 -2,-0.896 -2,-2 V 25 11 C 42,8.24 39.76,6 37,6 H 11 C 8.24,6 6,8.24 6,11 Z m 20.625,26 v 0 c 0.828,0 1.5,0.672 1.5,1.5 v 0 c 0,0.828 -0.672,1.5 -1.5,1.5 v 0 h -5.25 v 0 c -0.828,0 -1.5,-0.672 -1.5,-1.5 v 0 c 0,-0.828 0.672,-1.5 1.5,-1.5 v 0 z M 15.25,37 v 0 c 0.828,0 1.5,0.672 1.5,1.5 v 0 c 0,0.828 -0.672,1.5 -1.5,1.5 v 0 H 10 v 0 C 9.172,40 8.5,39.328 8.5,38.5 v 0 C 8.5,37.672 9.172,37 10,37 v 0 z m 23,0 v 0 c 0.828,0 1.5,0.672 1.5,1.5 v 0 c 0,0.828 -0.672,1.5 -1.5,1.5 v 0 H 33 v 0 c -0.828,0 -1.5,-0.672 -1.5,-1.5 v 0 C 31.5,37.672 32.172,37 33,37 v 0 z M 15.38,20.479 v 0 0 q 0.743,0 1.089,-0.431 v 0 0 q 0.345,-0.432 0.377,-1.466 v 0 -0.21 0 q 0,-1.143 -0.352,-1.638 v 0 0 q -0.352,-0.495 -1.146,-0.495 v 0 0 q -0.647,0 -1.006,0.549 v 0 0 q -0.359,0.549 -0.359,1.597 v 0 0 q 0,1.047 0.362,1.571 v 0 0 q 0.362,0.523 1.035,0.523 z m 8.626,-4.265 v 0 0 q -0.717,0 -1.047,0.441 v 0 0 q -0.33,0.441 -0.343,1.457 v 0 0.209 0 q 0,1.143 0.34,1.638 v 0 0 q 0.339,0.495 1.076,0.495 v 0 0 q 0.596,0 0.949,-0.549 v 0 0 q 0.352,-0.549 0.352,-1.596 v 0 0 q 0,-1.048 -0.355,-1.571 v 0 0 q -0.356,-0.524 -0.972,-0.524 z m 9.42,1.003 3.136,4.678 h -2.247 l -2.158,-3.51 -2.158,3.51 h -2.108 l 3.079,-4.786 -2.882,-4.494 h 2.171 l 1.999,3.339 1.962,-3.339 h 2.12 z m -18.725,4.805 v 0 0 q -1.251,0 -1.965,-0.971 v 0 0 Q 12.022,20.08 12.022,18.359 v 0 0 q 0,-1.745 0.727,-2.72 v 0 0 q 0.727,-0.974 2.002,-0.974 v 0 0 q 1.34,0 2.044,1.041 v 0 h 0.064 v 0 q -0.146,-0.793 -0.146,-1.415 v 0 -2.273 h 1.942 v 9.877 H 17.17 l -0.375,-0.92 h -0.082 v 0 q -0.66,1.047 -2.012,1.047 z m 9.927,-7.357 v 0 0 q 1.257,0 1.968,0.981 v 0 0 q 0.711,0.98 0.711,2.688 v 0 0 q 0,1.758 -0.733,2.723 v 0 0 q -0.733,0.965 -1.996,0.965 v 0 0 q -1.251,0 -1.962,-0.908 v 0 h -0.133 l -0.324,0.781 H 20.68 v -9.877 h 1.936 v 2.298 0 q 0,0.438 -0.076,1.403 v 0 h 0.076 v 0 q 0.679,-1.054 2.012,-1.054 z"
       inkscape:connector-curvature="0"
       style="fill:url(#_lgradient_0);fill-rule:evenodd" />
  </g>
</svg>

<?xml version="1.0" encoding="UTF-8" standalone="no"?><!-- Generator: Gravit.io --><svg xmlns="http://www.w3.org/2000/svg" xmlns:xlink="http://www.w3.org/1999/xlink" style="isolation:isolate" viewBox="0 0 48 48" width="48pt" height="48pt"><linearGradient id="_lgradient_0" x1="-0.000038208333333289435" y1="0.5000000833333331" x2="0.9999618333333335" y2="0.5000000833333331" gradientTransform="matrix(44,0,0,44,2,2)" gradientUnits="userSpaceOnUse"><stop offset="0%" stop-opacity="1" style="stop-color:rgb(211,0,220)"/><stop offset="100%" stop-opacity="1" style="stop-color:rgb(135,0,255)"/></linearGradient><path d=" M 10 35 L 10 35 C 8.896 35 8 34.104 8 33 L 8 33 C 8 31.896 8.896 31 10 31 L 10 31 L 44 31 C 45.104 31 46 31.896 46 33 L 46 39 C 46 42.863 42.863 46 39 46 L 9 46 C 5.137 46 2 42.863 2 39 L 2 20 L 2 20 C 2 18.896 2.896 18 4 18 L 4 18 C 5.104 18 6 18.896 6 20 L 6 20 L 6 37 C 6 39.76 8.24 42 11 42 L 37 42 C 39.76 42 42 39.76 42 37 L 42 35 L 10 35 L 10 35 L 10 35 L 10 35 L 10 35 Z  M 6 11 L 6 11 C 6 12.104 5.104 13 4 13 L 4 13 C 2.896 13 2 12.104 2 11 L 2 11 L 2 9 C 2 5.137 5.137 2 9 2 L 39 2 C 42.863 2 46 5.137 46 9 L 46 25 L 46 25 C 46 26.104 45.104 27 44 27 L 44 27 C 42.896 27 42 26.104 42 25 L 42 25 L 42 11 C 42 8.24 39.76 6 37 6 L 11 6 C 8.24 6 6 8.24 6 11 L 6 11 L 6 11 L 6 11 L 6 11 L 6 11 Z  M 26.625 37 L 26.625 37 C 27.453 37 28.125 37.672 28.125 38.5 L 28.125 38.5 C 28.125 39.328 27.453 40 26.625 40 L 26.625 40 L 21.375 40 L 21.375 40 C 20.547 40 19.875 39.328 19.875 38.5 L 19.875 38.5 C 19.875 37.672 20.547 37 21.375 37 L 21.375 37 L 26.625 37 L 26.625 37 L 26.625 37 L 26.625 37 Z  M 15.25 37 L 15.25 37 C 16.078 37 16.75 37.672 16.75 38.5 L 16.75 38.5 C 16.75 39.328 16.078 40 15.25 40 L 15.25 40 L 10 40 L 10 40 C 9.172 40 8.5 39.328 8.5 38.5 L 8.5 38.5 C 8.5 37.672 9.172 37 10 37 L 10 37 L 15.25 37 L 15.25 37 L 15.25 37 Z  M 38.25 37 L 38.25 37 C 39.078 37 39.75 37.672 39.75 38.5 L 39.75 38.5 C 39.75 39.328 39.078 40 38.25 40 L 38.25 40 L 33 40 L 33 40 C 32.172 40 31.5 39.328 31.5 38.5 L 31.5 38.5 C 31.5 37.672 32.172 37 33 37 L 33 37 L 38.25 37 L 38.25 37 Z  M 15.38 20.479 L 15.38 20.479 L 15.38 20.479 Q 16.123 20.479 16.469 20.048 L 16.469 20.048 L 16.469 20.048 Q 16.814 19.616 16.846 18.582 L 16.846 18.582 L 16.846 18.372 L 16.846 18.372 Q 16.846 17.229 16.494 16.734 L 16.494 16.734 L 16.494 16.734 Q 16.142 16.239 15.348 16.239 L 15.348 16.239 L 15.348 16.239 Q 14.701 16.239 14.342 16.788 L 14.342 16.788 L 14.342 16.788 Q 13.983 17.337 13.983 18.385 L 13.983 18.385 L 13.983 18.385 Q 13.983 19.432 14.345 19.956 L 14.345 19.956 L 14.345 19.956 Q 14.707 20.479 15.38 20.479 L 15.38 20.479 Z  M 24.006 16.214 L 24.006 16.214 L 24.006 16.214 Q 23.289 16.214 22.959 16.655 L 22.959 16.655 L 22.959 16.655 Q 22.629 17.096 22.616 18.112 L 22.616 18.112 L 22.616 18.321 L 22.616 18.321 Q 22.616 19.464 22.956 19.959 L 22.956 19.959 L 22.956 19.959 Q 23.295 20.454 24.032 20.454 L 24.032 20.454 L 24.032 20.454 Q 24.628 20.454 24.981 19.905 L 24.981 19.905 L 24.981 19.905 Q 25.333 19.356 25.333 18.309 L 25.333 18.309 L 25.333 18.309 Q 25.333 17.261 24.978 16.738 L 24.978 16.738 L 24.978 16.738 Q 24.622 16.214 24.006 16.214 L 24.006 16.214 Z  M 33.426 17.217 L 36.562 21.895 L 34.315 21.895 L 32.157 18.385 L 29.999 21.895 L 27.891 21.895 L 30.97 17.109 L 28.088 12.615 L 30.259 12.615 L 32.258 15.954 L 34.22 12.615 L 36.34 12.615 L 33.426 17.217 L 33.426 17.217 L 33.426 17.217 Z  M 14.701 22.022 L 14.701 22.022 L 14.701 22.022 Q 13.45 22.022 12.736 21.051 L 12.736 21.051 L 12.736 21.051 Q 12.022 20.08 12.022 18.359 L 12.022 18.359 L 12.022 18.359 Q 12.022 16.614 12.749 15.639 L 12.749 15.639 L 12.749 15.639 Q 13.476 14.665 14.751 14.665 L 14.751 14.665 L 14.751 14.665 Q 16.091 14.665 16.795 15.706 L 16.795 15.706 L 16.859 15.706 L 16.859 15.706 Q 16.713 14.913 16.713 14.291 L 16.713 14.291 L 16.713 12.018 L 18.655 12.018 L 18.655 21.895 L 17.17 21.895 L 16.795 20.975 L 16.713 20.975 L 16.713 20.975 Q 16.053 22.022 14.701 22.022 L 14.701 22.022 Z  M 24.628 14.665 L 24.628 14.665 L 24.628 14.665 Q 25.885 14.665 26.596 15.646 L 26.596 15.646 L 26.596 15.646 Q 27.307 16.626 27.307 18.334 L 27.307 18.334 L 27.307 18.334 Q 27.307 20.092 26.574 21.057 L 26.574 21.057 L 26.574 21.057 Q 25.841 22.022 24.578 22.022 L 24.578 22.022 L 24.578 22.022 Q 23.327 22.022 22.616 21.114 L 22.616 21.114 L 22.483 21.114 L 22.159 21.895 L 20.68 21.895 L 20.68 12.018 L 22.616 12.018 L 22.616 14.316 L 22.616 14.316 Q 22.616 14.754 22.54 15.719 L 22.54 15.719 L 22.616 15.719 L 22.616 15.719 Q 23.295 14.665 24.628 14.665 L 24.628 14.665 Z " fill-rule="evenodd" fill="url(#_lgradient_0)"/></svg>
